icons/settings-6-line.svg

<svg xmlns="http://www.w3.org/2000/svg" width="24" height="24" fill="none"><g clip-path="url(#a)"><g><path fill="#121212" d="M17.5 2.47412L23 12.0001L17.5 21.5261H6.5L1 12.0001L6.5 2.47412H17.5ZM16.345 4.47412H7.655L3.309 12.0001L7.655 19.5261H16.345L20.691 12.0001L16.345 4.47412ZM8.634 8.17012L10.366 7.17012L15.366 15.8301L13.634 16.8301L8.634 8.17012Z"/></g></g><defs><clipPath id="a"><rect width="24" height="24" fill="white"/></clipPath></defs></svg>

<svg width="24" height="24" fill="none" xmlns="http://www.w3.org/2000/svg"><g clip-path="url(#a)"><path d="M17.5 2.474 23 12l-5.5 9.526h-11L1 12l5.5-9.526h11Zm-1.155 2h-8.69L3.309 12l4.346 7.526h8.69L20.691 12l-4.346-7.526ZM8.634 8.17l1.732-1 5 8.66-1.732 1-5-8.66Z" /></g><defs><clipPath id="a"><path fill="#fff" d="M0 0h24v24H0z"/></clipPath></defs></svg>
